X: 11339
T: Eania's Fancy
R: reel
M: 4/4
K: Dmajor
|:ABAG FADE|F2 AF GE E2|A3 G FADE|DF F2 EFDF|
ABAG FADE|F2 AF GE E2|DEFA B2 ed|cABc d4:|
|:d3 e f2 ed|cA A2 cA A2|dcde f2 ed|B2 ed e3 c|
d3 e f2 ed|cA A2 cA A2|dcde f2 ed|cABc d3 A|
d3 e f2 ed|cA A2 cA A2|d3e f2 ed|Beed e3 c|
dcde f2 ed|cA A2 cAGE|DEFA Beed|cAGE D4||

